X: 667
T: Laicheng bainian
L: 1/8
M: 2/4
K: G
G A d g [I:setbarnb 1]| 
d A G E/ G/ | 
A2c E | 
D A,D2 | 
G B A/ B/ A/ G/ | 
D E/ D/B,2 | 
G B A/ B/ A/ G/ | 
D E/ D/B,2 | 
d B/ B/ d B | 
A3B | 
G A d d | 
B A G E/ G/ | 
B A A D | 
E> B A B | 
D4 |]

@@@ Tune index: 9541
